X: 36417
T: Seanamhac Tube Station
R: jig
M: 6/8
K: Dminor
|:GFD D2F|GAc d3|dcA cAF|GFD C3|
GFD D2F|GAc d3|dcA cAF|G3 G3:|
d3 dcA|c3 cAc|dcA cAF|GFD C3|
d3 dcA|c3 cAc|dcA cAF|G3 G3|
d3 dcA|c3 cAc|dcA cAF|GFD C3|
GFD D2F GAc d3|dcA cAF|G3 G3||

